easy/UndgåelseFølelse1.svg

<svg viewBox="220.056 431.242 864.889 271.283" xmlns="http://www.w3.org/2000/svg"><defs><clipPath id="UndgåelseFølelse1_svg__a"><path d="M0 0h1166v1094H0z"/></clipPath><clipPath id="UndgåelseFølelse1_svg__b"><path d="M0 0h545v513H0z"/></clipPath><clipPath id="UndgåelseFølelse1_svg__c"><path d="M0 0h1166v1094H0z"/></clipPath><clipPath id="UndgåelseFølelse1_svg__d"><path d="M0 0h545v513H0z"/></clipPath></defs><g data-name="Group 840"><path d="M648.08 1763.909c73.123-8.048 272.645 6.479 331.8 27.224 23.947 8.347 9.698 101.117-17.007 114.339-31.492 15.586-196.492 35.585-338.316 40.879-71.526 2.669-137.473-3.617-176.787-5.528-42.374-2.062-30.138-148.343 32.289-164.301 26.522-6.782 124.661-4.534 191.407-15.17" data-name="Path 517" style="fill:#fff;stroke-width:3px" transform="matrix(-1.31985 -.04725 .07976 -1.44615 1389.79 3277.867)"/></g><text x="335.786" y="485.952" style="font-family:&quot;Roboto Slab&quot;;font-size:20px;white-space:pre">Bliver fysisk aktiv med dagligdags opgaver, fx rengøring og tøjvask</text><text x="369.227" y="525.563" style="font-family:&quot;Roboto Slab&quot;;font-size:20px;white-space:pre">Afleder dig med fysisk træning</text><text x="524.598" y="561.855" style="font-family:&quot;Roboto Slab&quot;;font-size:20px;white-space:pre">Afleder dig med arbejde eller studier</text><text x="306.046" y="608.571" style="font-family:&quot;Roboto Slab&quot;;font-size:20px;white-space:pre">Afleder dig selv med TV eller internet</text><text x="625.09" y="654.587" style="font-family:&quot;Roboto Slab&quot;;font-size:20px;white-space:pre">Sover eller forsøger at sove</text><g data-name="Group 840"><path fill="#557591" d="M-1339.178 143.218c.184 10.269 16.891 8.765 15.597-.127-1.293-8.892-15.78-10.142-15.597.127Z" data-name="Path 1178" transform="rotate(-107 -259.62 -331.154)"/><path fill="#557591" d="M-1238.862 235.524c.184 10.269 16.891 8.765 15.597-.127-1.293-8.892-15.78-10.142-15.597.127Z" data-name="Path 1178" transform="rotate(-107 -159.304 -238.848)"/></g><path fill="#557591" d="M285.322 601.882c.184 10.269 16.891 8.765 15.597-.127-1.293-8.892-15.78-10.142-15.597.127Z" data-name="Path 1178" transform="rotate(-107 293.155 601.822)"/><path fill="#557591" d="M346.315 518.498c.184 10.269 16.891 8.765 15.597-.127-1.293-8.892-15.78-10.142-15.597.127Z" data-name="Path 1178" transform="rotate(-107 354.148 518.438)"/><path fill="#557591" d="M315.333 479.357c.184 10.269 16.891 8.765 15.597-.127-1.293-8.892-15.78-10.142-15.597.127Z" data-name="Path 1178" transform="rotate(-107 323.166 479.297)"/><g data-name="Group 186" transform="matrix(-.7565 0 0 .722 578.407 843.558)"><path fill="none" stroke="#6c86a1" stroke-linecap="round" stroke-linejoin="round" stroke-width="3" d="m-470.79-268.73 8.007 24.489 39.292 8.6" data-name="Path 403"/><path fill="none" stroke="#6c86a1" stroke-linecap="round" stroke-linejoin="round" stroke-width="3" d="M-442.359-334.299c10.358 9.684 22.343 16.711 38.442 23.739" data-name="Path 404"/><path fill="none" stroke="#6c86a1" stroke-linecap="round" stroke-miterlimit="10" stroke-width="2" d="M-554.326-344.51a7.631 7.631 0 0 0-4.864-1.742 2.2 2.2 0 0 0-1.328.285 1.6 1.6 0 0 0-.552 1.641 3.117 3.117 0 0 0 .959 1.53 6.11 6.11 0 0 0 4.184 1.677c-1.576.921-5.112 3.632-4.415 5.816.959 3 8.486 1.919 8.238-1.571" data-name="Path 405"/><path fill="#6c85a0" d="m-638.421-307.364 3.188-2.839c-8.777 3.326-15.925 2.239-20.825-5.107-6.777-10.16 1.037-26.134 17.928-23.346l-8.049-3.1c1.319-7.494 8.345-12.589 15.877-11.515 7.324.854 12.742 7.223 12.411 14.59l-7.8.661.19 4.475c2.831-.294 5.488-.552 8.143-.851 8.006-.9 16.008-1.829 24.014-2.724 1.769-.2 3.6-.258 2.271-3.121l-21.616 1.287c-1.682-4.519-2.6-9.059-4.907-12.727-4-6.353-10.465-8.414-17.7-7.025-7.471 1.436-12.18 6.249-13.879 13.619-.588 2.55-1.332 3.837-4.092 4.569-9.352 2.566-14.995 12.073-12.771 21.512 2.108 9.303 11.032 15.407 20.466 14 1.94-.285 3.42-.711 5.018 1.4 6.2 8.173 16.217 9.956 24.968 4.808 7.532-4.432 10.541-14.364 7.068-23.314-.183-.47-.294-.969-.543-1.8 5.832-2.316 11.616-4.529 17.311-6.951 1.055-.448 1.749-1.742 2.61-2.644l-.928-1.082c-10.893 3.709-21.786 7.416-33.044 11.248l1.648 4.186 7.447-2.629c3.6 6.611 1.224 14.315-5.577 18.572-6.385 3.818-14.64 1.997-18.827-4.152Z" data-name="Path 406"/><path fill="none" stroke="#6c86a1" stroke-miterlimit="10" stroke-width="4.269" d="M-497.198-414.746c13.592 4.3 23.626 15.786 31.5 27.672a182.519 182.519 0 0 1 28.433 75.028c.723 5.145 1.215 10.471-.208 15.467-1.8 6.343-6.512 11.476-11.717 15.525-9.876 7.688-21.839 12.262-33.955 15.4-10.3 2.666-21.088 4.379-31.573 2.56s-20.686-7.623-25.741-16.988c-2.991-5.539-4.018-11.9-5-18.118q-1.449-9.186-2.9-18.369c-2.588-16.4-5.179-33.09-2.82-49.524s10.462-32.859 24.775-41.264c4.557-2.68 9.719-7.862 15-8.057 11.469-.419 5.962-.52 14.2.663" data-name="Path 407"/><path fill="none" stroke="#6c86a1" stroke-linecap="round" stroke-width="7" d="M-467.303-392.564c-8.491 8.463-22.76 13.924-34.265 16.826a123.291 123.291 0 0 1-24.572 3.615c-7.528.34-16.525.227-24.259-3.347" data-name="Path 408"/><g fill="#6c86a1" data-name="Group 185"><path d="M-471.799-422.574c5.779-1.8 11.083-3.42 16.361-5.117 1.735-.557 3.782-.974 3.724-3.451-.058-2.453-1.988-4.967-4.4-5.073a13.212 13.212 0 0 0-6.054 1.113c-5.032 2.394-8.351 6.329-9.631 12.528Z" data-name="Path 409"/><path d="M-483.554-422.8c2.15-3.733 4.352-7.469 6.457-11.26.737-1.328 1.5-2.818-.031-4.164-1.473-1.292-4.22-1.4-5.529.162a13.8 13.8 0 0 0-2.666 5 11.869 11.869 0 0 0 1.769 10.262Z" data-name="Path 410"/><path d="M-468.685-408.916c4.047-.321 7.886-.5 11.684-1.007 1.065-.142 2.69-1.089 2.856-1.909a3.166 3.166 0 0 0-2.348-3.945 11.685 11.685 0 0 0-5.141.359 10.893 10.893 0 0 0-7.051 6.502Z" data-name="Path 411"/></g><circle cx="4.318" cy="4.318" r="4.318" fill="none" stroke="#6c86a1" stroke-width="2" data-name="Ellipse 35" transform="translate(-544.014 -354.525)"/><path fill="none" stroke="#6c86a1" stroke-linecap="round" stroke-miterlimit="10" stroke-width="2" d="M-542.16-361.597c3.391.709 5.933 2.514 8.457 4.829" data-name="Path 412"/><circle cx="1.522" cy="1.522" r="1.522" fill="#6c86a1" stroke="#6c86a1" data-name="Ellipse 36" transform="translate(-542.982 -351.665)"/><path fill="none" stroke="#6c86a1" stroke-linecap="round" stroke-linejoin="round" stroke-width="3" d="m-571.951-307.733 39.933 14.946 30.366-25.757" data-name="Path 413"/><path fill="none" stroke="#6c86a1" stroke-linecap="round" stroke-linejoin="round" stroke-width="3" d="m-495.357-287.643-39.113 18.262-9.341 47.415" data-name="Path 414"/><path fill="none" stroke="#6c86a1" stroke-linecap="round" stroke-linejoin="round" stroke-width="3" d="m-562.031-224.868 17.914 3.004" data-name="Line 1"/><path fill="none" stroke="#6c86a1" stroke-linecap="round" stroke-linejoin="round" stroke-width="3" d="m-428.179-217.719 4.31-17.645" data-name="Line 2"/></g><g data-name="Group 840"><path d="M648.08 1763.909c73.123-8.048 272.645 6.479 331.8 27.224 23.947 8.347 9.698 101.117-17.007 114.339-31.492 15.586-196.492 35.585-338.316 40.879-71.526 2.669-137.473-3.617-176.787-5.528-42.374-2.062-30.138-148.343 32.289-164.301 26.522-6.782 124.661-4.534 191.407-15.17" data-name="Path 517" style="fill:#fff;stroke-width:3px" transform="matrix(-1.31985 -.04725 .07976 -1.44615 2158.8 3593.802)"/></g></svg>

<?xml version="1.0" encoding="utf-8"?>
<svg xmlns="http://www.w3.org/2000/svg" xmlns:bx="https://boxy-svg.com" viewBox="220.056 431.242 864.889 271.283">
  <defs>
    
    <clipPath id="clip-1">
      <rect width="1166" height="1094"/>
    </clipPath>
    <clipPath id="clip-Illustration_-_Min_fysiske_energi_-_Min_fysiske_aktivitet">
      <rect width="545" height="513"/>
    </clipPath>
    <clipPath id="clip-3">
      <rect width="1166" height="1094"/>
    </clipPath>
    <clipPath id="clip-4">
      <rect width="545" height="513"/>
    </clipPath>
  </defs>
  <g id="Group_840" data-name="Group 840" transform="matrix(1.321153, 0, 0, 1.44758, -332.196991, -2134.170166)" style="">
    <path id="Path_517" data-name="Path 517" d="M 648.08 1763.909 C 721.203 1755.861 920.725 1770.388 979.88 1791.133 C 1003.827 1799.48 989.578 1892.25 962.873 1905.472 C 931.381 1921.058 766.381 1941.057 624.557 1946.351 C 553.031 1949.02 487.084 1942.734 447.77 1940.823 C 405.396 1938.761 417.632 1792.48 480.059 1776.522 C 506.581 1769.74 604.72 1771.988 671.466 1761.352" style="fill: rgb(255, 255, 255); stroke-width: 3px;" transform="matrix(-0.999014, -0.032643, 0.060372, -0.999014, 1303.396999, 3738.679037)"/>
  </g>
  <text style="font-family: &quot;Roboto Slab&quot;; font-size: 20px; white-space: pre;" x="335.786" y="485.952">Bliver fysisk aktiv med dagligdags opgaver, fx rengøring og tøjvask</text>
  <text style="font-family: &quot;Roboto Slab&quot;; font-size: 20px; white-space: pre;" x="369.227" y="525.563">Afleder dig med fysisk træning</text>
  <text style="font-family: &quot;Roboto Slab&quot;; font-size: 20px; white-space: pre;" x="524.598" y="561.855">Afleder dig med arbejde eller studier</text>
  <text style="font-family: &quot;Roboto Slab&quot;; font-size: 20px; white-space: pre;" x="306.046" y="608.571">Afleder dig selv med TV eller internet</text>
  <text style="font-family: &quot;Roboto Slab&quot;; font-size: 20px; white-space: pre;" x="625.09" y="654.587">Sover eller forsøger at sove</text>
  <g id="g-1" clip-path="url(#clip-1)" transform="matrix(1, 0, 0, 1, 2403.630127, 2288.705078)"/>
  <g id="Illustration_-_Min_fysiske_energi_-_Min_fysiske_aktivitet" data-name="Illustration - Min fysiske energi - Min fysiske aktivitet" clip-path="url(#clip-Illustration_-_Min_fysiske_energi_-_Min_fysiske_aktivitet)" transform="matrix(1, 0, 0, 1, 2109.029053, 1886.512207)"/>
  <g id="g-3" data-name="Group 840" transform="matrix(1, 0, 0, 1, 1838.653809, 411.908936)">
    <g id="g-2" data-name="Group 840" transform="matrix(1, 0, 0, 1, -969.462719, 229.481967)"/>
    <path id="path-2" data-name="Path 1178" fill="#557591" style="" d="M -1339.178 143.218 C -1338.994 153.487 -1322.287 151.983 -1323.581 143.091 C -1324.874 134.199 -1339.361 132.949 -1339.178 143.218 Z" transform="matrix(-0.292372, -0.956305, 0.956305, -0.292372, -1857.495032, -1088.157893)"/>
    <path id="path-1" data-name="Path 1178" fill="#557591" style="" d="M -1238.862 235.524 C -1238.678 245.793 -1221.971 244.289 -1223.265 235.397 C -1224.558 226.505 -1239.045 225.255 -1238.862 235.524 Z" transform="matrix(-0.292372, -0.956305, 0.956305, -0.292372, -1816.122139, -872.93157)"/>
  </g>
  <g id="g-5" clip-path="url(#clip-3)" transform="matrix(1, 0, 0, 1, 6835.70459, 855.767212)"/>
  <g id="g-6" data-name="Illustration - Min fysiske energi - Min fysiske aktivitet" clip-path="url(#clip-4)" transform="matrix(1, 0, 0, 1, 6541.103027, 453.574402)"/>
  <path id="path-3" data-name="Path 1178" fill="#557591" style="" d="M 285.322 601.882 C 285.506 612.151 302.213 610.647 300.919 601.755 C 299.626 592.863 285.139 591.613 285.322 601.882 Z" transform="matrix(-0.292372, -0.956305, 0.956305, -0.292372, -196.659326, 1058.123586)"/>
  <path id="path-4" data-name="Path 1178" fill="#557591" style="" d="M 346.315 518.498 C 346.499 528.767 363.206 527.263 361.912 518.371 C 360.619 509.479 346.132 508.229 346.315 518.498 Z" transform="matrix(-0.292372, -0.956305, 0.956305, -0.292372, -38.093192, 1008.688351)"/>
  <path id="path-5" data-name="Path 1178" fill="#557591" style="" d="M 315.333 479.357 C 315.517 489.626 332.224 488.122 330.93 479.23 C 329.637 470.338 315.15 469.088 315.333 479.357 Z" transform="matrix(-0.292372, -0.956305, 0.956305, -0.292372, -40.702738, 928.475407)"/>
  <g id="Group_186" data-name="Group 186" transform="matrix(-0.756505, 0, 0, 0.722009, 578.407227, 843.558167)" style="">
    <path id="Path_403" data-name="Path 403" d="M-544.863-339.468l8.007,24.489,39.292,8.6" transform="translate(74.073 70.738)" fill="none" stroke="#6c86a1" stroke-linecap="round" stroke-linejoin="round" stroke-width="3"/>
    <path id="Path_404" data-name="Path 404" d="M-529.4-377.245c10.358,9.684,22.343,16.711,38.442,23.739" transform="translate(87.041 42.946)" fill="none" stroke="#6c86a1" stroke-linecap="round" stroke-linejoin="round" stroke-width="3"/>
    <path id="Path_405" data-name="Path 405" d="M-590.922-383.08a7.631,7.631,0,0,0-4.864-1.742,2.2,2.2,0,0,0-1.328.285,1.6,1.6,0,0,0-.552,1.641,3.117,3.117,0,0,0,.959,1.53,6.11,6.11,0,0,0,4.184,1.677c-1.576.921-5.112,3.632-4.415,5.816.959,3,8.486,1.919,8.238-1.571" transform="translate(36.596 38.57)" fill="none" stroke="#6c86a1" stroke-linecap="round" stroke-miterlimit="10" stroke-width="2"/>
    <path id="Path_406" data-name="Path 406" d="M -638.421 -307.364 L -635.233 -310.203 C -644.01 -306.877 -651.158 -307.964 -656.058 -315.31 C -662.835 -325.47 -655.021 -341.444 -638.13 -338.656 L -646.179 -341.756 C -644.86 -349.25 -637.834 -354.345 -630.302 -353.271 C -622.978 -352.417 -617.56 -346.048 -617.891 -338.681 L -625.691 -338.02 L -625.501 -333.545 C -622.67 -333.839 -620.013 -334.097 -617.358 -334.396 C -609.352 -335.296 -601.35 -336.225 -593.344 -337.12 C -591.575 -337.32 -589.744 -337.378 -591.073 -340.241 L -612.689 -338.954 C -614.371 -343.473 -615.289 -348.013 -617.596 -351.681 C -621.596 -358.034 -628.061 -360.095 -635.296 -358.706 C -642.767 -357.27 -647.476 -352.457 -649.175 -345.087 C -649.763 -342.537 -650.507 -341.25 -653.267 -340.518 C -662.619 -337.952 -668.262 -328.445 -666.038 -319.006 C -663.93 -309.703 -655.006 -303.599 -645.572 -305.006 C -643.632 -305.291 -642.152 -305.717 -640.554 -303.606 C -634.354 -295.433 -624.337 -293.65 -615.586 -298.798 C -608.054 -303.23 -605.045 -313.162 -608.518 -322.112 C -608.701 -322.582 -608.812 -323.081 -609.061 -323.912 C -603.229 -326.228 -597.445 -328.441 -591.75 -330.863 C -590.695 -331.311 -590.001 -332.605 -589.14 -333.507 L -590.068 -334.589 C -600.961 -330.88 -611.854 -327.173 -623.112 -323.341 L -621.464 -319.155 L -614.017 -321.784 C -610.417 -315.173 -612.793 -307.469 -619.594 -303.212 C -625.979 -299.394 -634.234 -301.215 -638.421 -307.364 Z" fill="#6c85a0"/>
    <path id="Path_407" data-name="Path 407" d="M-537.533-424.5c13.592,4.3,23.626,15.786,31.5,27.672A182.519,182.519,0,0,1-477.6-321.8c.723,5.145,1.215,10.471-.208,15.467-1.8,6.343-6.512,11.476-11.717,15.525-9.876,7.688-21.839,12.262-33.955,15.4-10.3,2.666-21.088,4.379-31.573,2.56s-20.686-7.623-25.741-16.988c-2.991-5.539-4.018-11.9-5-18.118q-1.449-9.186-2.9-18.369c-2.588-16.4-5.179-33.09-2.82-49.524s10.462-32.859,24.775-41.264c4.557-2.68,9.719-7.862,15-8.057,11.469-.419,5.962-.52,14.2.663" transform="translate(40.335 9.754)" fill="none" stroke="#6c86a1" stroke-miterlimit="10" stroke-width="4.269"/>
    <path id="Path_408" data-name="Path 408" d="M-506.571-411.395c-8.491,8.463-22.76,13.924-34.265,16.826a123.291,123.291,0,0,1-24.572,3.615c-7.528.34-16.525.227-24.259-3.347" transform="translate(39.268 18.831)" fill="none" stroke="#6c86a1" stroke-linecap="round" stroke-width="7"/>
    <g id="Group_185" data-name="Group 185" transform="translate(-485.796 -439.209)">
      <path id="Path_409" data-name="Path 409" d="M-545.453-423.811c5.779-1.8,11.083-3.42,16.361-5.117,1.735-.557,3.782-.974,3.724-3.451-.058-2.453-1.988-4.967-4.4-5.073a13.212,13.212,0,0,0-6.054,1.113C-540.854-433.945-544.173-430.01-545.453-423.811Z" transform="translate(559.45 440.446)" fill="#6c86a1"/>
      <path id="Path_410" data-name="Path 410" d="M-551.4-422.8c2.15-3.733,4.352-7.469,6.457-11.26.737-1.328,1.5-2.818-.031-4.164-1.473-1.292-4.22-1.4-5.529.162a13.8,13.8,0,0,0-2.666,5A11.869,11.869,0,0,0-551.4-422.8Z" transform="translate(553.642 439.209)" fill="#6c86a1"/>
      <path id="Path_411" data-name="Path 411" d="M-543.631-418.58c4.047-.321,7.886-.5,11.684-1.007,1.065-.142,2.69-1.089,2.856-1.909a3.166,3.166,0,0,0-2.348-3.945,11.685,11.685,0,0,0-5.141.359A10.893,10.893,0,0,0-543.631-418.58Z" transform="translate(560.742 448.873)" fill="#6c86a1"/>
    </g>
    <circle id="Ellipse_35" data-name="Ellipse 35" cx="4.318" cy="4.318" r="4.318" transform="translate(-544.014 -354.525)" fill="none" stroke="#6c86a1" stroke-width="2"/>
    <path id="Path_412" data-name="Path 412" d="M-586.619-393.8c3.391.709,5.933,2.514,8.457,4.829" transform="translate(44.459 32.203)" fill="none" stroke="#6c86a1" stroke-linecap="round" stroke-miterlimit="10" stroke-width="2"/>
    <circle id="Ellipse_36" data-name="Ellipse 36" cx="1.522" cy="1.522" r="1.522" transform="translate(-542.982 -351.665)" fill="#6c86a1" stroke="#6c86a1" stroke-width="1"/>
    <path id="Path_413" data-name="Path 413" d="M-604.049-357.8l39.933,14.946,30.366-25.757" transform="translate(32.098 50.067)" fill="none" stroke="#6c86a1" stroke-linecap="round" stroke-linejoin="round" stroke-width="3"/>
    <path id="Path_414" data-name="Path 414" d="M-539.131-350.533l-39.113,18.262-9.341,47.415" transform="translate(43.774 62.89)" fill="none" stroke="#6c86a1" stroke-linecap="round" stroke-linejoin="round" stroke-width="3"/>
    <line id="Line_1" data-name="Line 1" x2="17.914" y2="3.004" transform="translate(-562.031 -224.868)" fill="none" stroke="#6c86a1" stroke-linecap="round" stroke-linejoin="round" stroke-width="3"/>
    <line id="Line_2" data-name="Line 2" y1="17.645" x2="4.31" transform="translate(-428.179 -235.364)" fill="none" stroke="#6c86a1" stroke-linecap="round" stroke-linejoin="round" stroke-width="3"/>
  </g>
  <g id="g-4" data-name="Group 840" transform="matrix(1.321153, 0, 0, 1.44758, 436.812744, -1818.235229)" style="">
    <path id="path-6" data-name="Path 517" d="M 648.08 1763.909 C 721.203 1755.861 920.725 1770.388 979.88 1791.133 C 1003.827 1799.48 989.578 1892.25 962.873 1905.472 C 931.381 1921.058 766.381 1941.057 624.557 1946.351 C 553.031 1949.02 487.084 1942.734 447.77 1940.823 C 405.396 1938.761 417.632 1792.48 480.059 1776.522 C 506.581 1769.74 604.72 1771.988 671.466 1761.352" style="fill: rgb(255, 255, 255); stroke-width: 3px;" transform="matrix(-0.999014, -0.032643, 0.060372, -0.999014, 1303.396999, 3738.679037)"/>
  </g>
</svg>
